lib/healthicons/icons/solid/body/spine.svg

<svg fill="none" height="48" viewBox="0 0 48 48" width="48" xmlns="http://www.w3.org/2000/svg"><g clip-rule="evenodd" fill="#333" fill-rule="evenodd"><path d="m16.2058 6.24184c-.6225-.12006-1.2058.3531-1.2058.98711v.65764c0 .55229-.4477 1-1 1h-1c-.5523 0-1 .44772-1 1v1.84871c0 .5523.4477 1 1 1h1c.5523 0 1 .4477 1 1v1.11c0 .4569.3106.8567.7544.9654 6.466 1.5845 10.3219 1.5853 16.5017.0058.4387-.1122.7439-.5096.7439-.9624v-1.1188c0-.5523.4477-1 1-1h1c.5523 0 1-.4477 1-1v-1.84871c0-.55228-.4477-1-1-1h-1c-.5523 0-1-.44771-1-1v-.65448c0-.63504-.585-1.10842-1.2084-.98708-5.9034 1.14914-9.6831 1.13518-15.5858-.00319zm2.7942 3.75826c0-.5523-.4477-1.00002-1-1.00002s-1 .44772-1 1.00002v3c0 .5523.4477 1 1 1s1-.4477 1-1z"/><path d="m16.2058 18.2418c-.6225-.12-1.2058.3531-1.2058.9872v.6576c0 .5523-.4477 1-1 1h-1c-.5523 0-1 .4477-1 1v1.8487c0 .5523.4477 1 1 1h1c.5523 0 1 .4477 1 1v1.11c0 .4569.3106.8567.7544.9654 6.466 1.5845 10.3219 1.5853 16.5017.0058.4387-.1122.7439-.5096.7439-.9624v-1.1188c0-.5523.4477-1 1-1h1c.5523 0 1-.4477 1-1v-1.8487c0-.5523-.4477-1-1-1h-1c-.5523 0-1-.4477-1-1v-.6545c0-.635-.585-1.1084-1.2084-.9871-5.9034 1.1492-9.6831 1.1352-15.5858-.0032zm2.7942 3.7583c0-.5523-.4477-1-1-1s-1 .4477-1 1v3c0 .5523.4477 1 1 1s1-.4477 1-1z"/><path d="m16.2058 30.2418c-.6225-.12-1.2058.3531-1.2058.9872v.6576c0 .5523-.4477 1-1 1h-1c-.5523 0-1 .4477-1 1v1.8487c0 .5523.4477 1 1 1h1c.5523 0 1 .4477 1 1v1.11c0 .4569.3106.8567.7544.9654 6.466 1.5845 10.3219 1.5853 16.5017.0058.4387-.1122.7439-.5096.7439-.9624v-1.1188c0-.5523.4477-1 1-1h1c.5523 0 1-.4477 1-1v-1.8487c0-.5523-.4477-1-1-1h-1c-.5523 0-1-.4477-1-1v-.6545c0-.635-.585-1.1084-1.2084-.9871-5.9034 1.1492-9.6831 1.1352-15.5858-.0032zm2.7942 3.7583c0-.5523-.4477-1-1-1s-1 .4477-1 1v3c0 .5523.4477 1 1 1s1-.4477 1-1z"/></g></svg>

<svg width="48" height="48" viewBox="0 0 48 48" fill="none" xmlns="http://www.w3.org/2000/svg">
<path fill-rule="evenodd" clip-rule="evenodd" d="M16.2058 6.24184C15.5833 6.12178 15 6.59494 15 7.22895V7.88659C15 8.43888 14.5523 8.88659 14 8.88659H13C12.4477 8.88659 12 9.33431 12 9.88659V11.7353C12 12.2876 12.4477 12.7353 13 12.7353H14C14.5523 12.7353 15 13.183 15 13.7353V14.8453C15 15.3022 15.3106 15.702 15.7544 15.8107C22.2204 17.3952 26.0763 17.396 32.2561 15.8165C32.6948 15.7043 33 15.3069 33 14.8541V13.7353C33 13.183 33.4477 12.7353 34 12.7353H35C35.5523 12.7353 36 12.2876 36 11.7353V9.88659C36 9.33431 35.5523 8.88659 35 8.88659H34C33.4477 8.88659 33 8.43888 33 7.88659V7.23211C33 6.59707 32.415 6.12369 31.7916 6.24503C25.8882 7.39417 22.1085 7.38021 16.2058 6.24184ZM19 10.0001C19 9.4478 18.5523 9.00008 18 9.00008C17.4477 9.00008 17 9.4478 17 10.0001V13.0001C17 13.5524 17.4477 14.0001 18 14.0001C18.5523 14.0001 19 13.5524 19 13.0001V10.0001Z" fill="#333333"/>
<path fill-rule="evenodd" clip-rule="evenodd" d="M16.2058 18.2418C15.5833 18.1218 15 18.5949 15 19.229V19.8866C15 20.4389 14.5523 20.8866 14 20.8866H13C12.4477 20.8866 12 21.3343 12 21.8866V23.7353C12 24.2876 12.4477 24.7353 13 24.7353H14C14.5523 24.7353 15 25.183 15 25.7353V26.8453C15 27.3022 15.3106 27.702 15.7544 27.8107C22.2204 29.3952 26.0763 29.396 32.2561 27.8165C32.6948 27.7043 33 27.3069 33 26.8541V25.7353C33 25.183 33.4477 24.7353 34 24.7353H35C35.5523 24.7353 36 24.2876 36 23.7353V21.8866C36 21.3343 35.5523 20.8866 35 20.8866H34C33.4477 20.8866 33 20.4389 33 19.8866V19.2321C33 18.5971 32.415 18.1237 31.7916 18.245C25.8882 19.3942 22.1085 19.3802 16.2058 18.2418ZM19 22.0001C19 21.4478 18.5523 21.0001 18 21.0001C17.4477 21.0001 17 21.4478 17 22.0001V25.0001C17 25.5524 17.4477 26.0001 18 26.0001C18.5523 26.0001 19 25.5524 19 25.0001V22.0001Z" fill="#333333"/>
<path fill-rule="evenodd" clip-rule="evenodd" d="M16.2058 30.2418C15.5833 30.1218 15 30.5949 15 31.229V31.8866C15 32.4389 14.5523 32.8866 14 32.8866H13C12.4477 32.8866 12 33.3343 12 33.8866V35.7353C12 36.2876 12.4477 36.7353 13 36.7353H14C14.5523 36.7353 15 37.183 15 37.7353V38.8453C15 39.3022 15.3106 39.702 15.7544 39.8107C22.2204 41.3952 26.0763 41.396 32.2561 39.8165C32.6948 39.7043 33 39.3069 33 38.8541V37.7353C33 37.183 33.4477 36.7353 34 36.7353H35C35.5523 36.7353 36 36.2876 36 35.7353V33.8866C36 33.3343 35.5523 32.8866 35 32.8866H34C33.4477 32.8866 33 32.4389 33 31.8866V31.2321C33 30.5971 32.415 30.1237 31.7916 30.245C25.8882 31.3942 22.1085 31.3802 16.2058 30.2418ZM19 34.0001C19 33.4478 18.5523 33.0001 18 33.0001C17.4477 33.0001 17 33.4478 17 34.0001V37.0001C17 37.5524 17.4477 38.0001 18 38.0001C18.5523 38.0001 19 37.5524 19 37.0001V34.0001Z" fill="#333333"/>
</svg>
